img/ui/icons/Money.svg

<svg width="26" height="26" viewBox="0 0 26 26" fill="none" xmlns="http://www.w3.org/2000/svg">
<path d="M10.959 9.875L15.344 3.625L20.459 7.2085L18.594 9.875H10.959ZM10.959 9.875H6.47949L10.136 4.6665L13.167 6.75L10.959 9.875Z" stroke="currentColor" stroke-width="1.5" stroke-linecap="round" stroke-linejoin="round"/>
<path d="M21.5005 9.875H4.83349C4.25849 9.875 3.79199 10.3415 3.79199 10.9165V21.3335C3.79199 21.9085 4.25849 22.375 4.83349 22.375H21.5005C22.0755 22.375 22.542 21.9085 22.542 21.3335V10.9165C22.542 10.3415 22.0755 9.875 21.5005 9.875Z" stroke="currentColor" stroke-width="1.5" stroke-linecap="round" stroke-linejoin="round"/>
<path d="M17.3335 14.041H22.542V18.208H17.3335C17.1967 18.208 17.0612 18.1811 16.9348 18.1287C16.8084 18.0763 16.6936 17.9996 16.5969 17.9028C16.5001 17.806 16.4234 17.6912 16.3711 17.5647C16.3188 17.4383 16.2919 17.3028 16.292 17.166V15.083C16.292 14.8067 16.4017 14.5418 16.597 14.3464C16.7923 14.151 17.0572 14.0411 17.3335 14.041Z" stroke="currentColor" stroke-linecap="round" stroke-linejoin="round"/>
</svg>

<svg width="26" height="26" fill="none" xmlns="http://www.w3.org/2000/svg"><path d="m10.959 9.875 4.385-6.25 5.115 3.583-1.865 2.667h-7.635Zm0 0h-4.48l3.657-5.208 3.031 2.083-2.208 3.125ZM21.5 9.875H4.833c-.575 0-1.041.466-1.041 1.041v10.418c0 .575.466 1.041 1.041 1.041H21.5c.576 0 1.042-.466 1.042-1.041V10.916c0-.575-.466-1.041-1.042-1.041Z" stroke="currentColor" stroke-width="1.5" stroke-linecap="round" stroke-linejoin="round"/><path d="M17.334 14.041h5.208v4.167h-5.209a1.041 1.041 0 0 1-1.041-1.042v-2.083a1.042 1.042 0 0 1 1.041-1.042Z" stroke="currentColor" stroke-linecap="round" stroke-linejoin="round"/></svg>
